src/ic_panda_frontend/static/_assets/icpanda-dao.svg

<svg xmlns="http://www.w3.org/2000/svg" xmlns:xlink="http://www.w3.org/1999/xlink" fill="none" version="1.1" width="284" height="49" viewBox="0 0 284 49"><g><path d="M3.31813,39L3.31813,11L9.81312,11L9.81312,39L3.31813,39ZM29.8556,39.4712Q26.5925,39.4712,23.8169,38.4113Q21.0413,37.3512,19.0012,35.4031Q16.9619,33.455,15.8263,30.8112Q14.6906,28.1675,14.6906,25Q14.6906,21.8325,15.8263,19.1888Q16.9619,16.545,19.0138,14.5969Q21.0656,12.6488,23.8406,11.5888Q26.6162,10.5288,29.88,10.5288Q33.5175,10.5288,36.4681,11.7881Q39.4188,13.0469,41.4019,15.4775L37.2525,19.325Q35.8194,17.6925,34.0537,16.8569Q32.2881,16.0206,30.1912,16.0206Q28.2281,16.0206,26.5938,16.67Q24.9594,17.3188,23.7612,18.5163Q22.5637,19.7138,21.9025,21.3638Q21.2412,23.0138,21.2412,25Q21.2412,26.9862,21.9025,28.6362Q22.5637,30.2863,23.7612,31.4837Q24.9594,32.6813,26.5938,33.3306Q28.2281,33.9794,30.1912,33.9794Q32.2881,33.9794,34.0537,33.1437Q35.8194,32.3075,37.2525,30.6506L41.4019,34.4987Q39.4188,36.9131,36.4681,38.1925Q33.5175,39.4712,29.8556,39.4712ZM45.7581,39L45.7581,11L57.8619,11Q61.6375,11,64.3644,12.22Q67.0919,13.4394,68.5675,15.7231Q70.0431,18.0063,70.0431,21.1494Q70.0431,24.2687,68.5675,26.5444Q67.0919,28.82,64.3644,30.0475Q61.6375,31.275,57.8619,31.275L49.3569,31.275L52.2531,28.3694L52.2531,39L45.7581,39ZM52.2531,29.0719L49.3569,25.9988L57.5275,25.9988Q60.5012,25.9988,61.9962,24.7206Q63.4919,23.4419,63.4919,21.1494Q63.4919,18.8331,61.9962,17.555Q60.5012,16.2769,57.5275,16.2769L49.3569,16.2769L52.2531,13.2038L52.2531,29.0719ZM87.1806,39L87.1806,34.8063L86.8062,33.8625L86.8062,26.3581Q86.8062,24.3475,85.5844,23.2425Q84.3631,22.1369,81.8256,22.1369Q80.1281,22.1369,78.4631,22.6694Q76.7987,23.2013,75.6219,24.1219L73.3937,19.7794Q75.1687,18.5069,77.6437,17.8431Q80.1187,17.1788,82.6787,17.1788Q87.6187,17.1788,90.3325,19.4937Q93.0462,21.8081,93.0462,26.7088L93.0462,39L87.1806,39ZM80.6425,39.3037Q78.1319,39.3037,76.3319,38.4562Q74.5319,37.6081,73.5756,36.1287Q72.6194,34.6488,72.6194,32.7931Q72.6194,30.8906,73.5544,29.4469Q74.4894,28.0025,76.5281,27.1825Q78.5675,26.3619,81.8469,26.3619L87.5412,26.3619L87.5412,29.9981L82.5387,29.9981Q80.3262,29.9981,79.5094,30.7119Q78.6925,31.425,78.6925,32.5381Q78.6925,33.7081,79.6225,34.4137Q80.5525,35.1188,82.18,35.1188Q83.7519,35.1188,85.0025,34.3894Q86.2531,33.66,86.8062,32.1937L87.7487,35.0913Q87.0844,37.145,85.2831,38.2244Q83.4825,39.3037,80.6425,39.3037ZM111.745,17.1788Q114.313,17.1788,116.329,18.1869Q118.345,19.1944,119.512,21.2944Q120.681,23.3937,120.681,26.6888L120.681,39L114.441,39L114.441,27.6213Q114.441,25.0262,113.298,23.7925Q112.156,22.5581,110.095,22.5581Q108.596,22.5581,107.417,23.1831Q106.239,23.8081,105.586,25.0819Q104.933,26.3556,104.933,28.3581L104.933,39L98.6931,39L98.6931,17.4819L104.638,17.4819L104.638,23.4475L103.521,21.6556Q104.681,19.4656,106.836,18.3225Q108.992,17.1788,111.745,17.1788ZM135.707,39.3037Q132.698,39.3037,130.254,37.9356Q127.809,36.5675,126.394,34.0881Q124.978,31.6081,124.978,28.2331Q124.978,24.8581,126.394,22.3787Q127.809,19.8988,130.254,18.5387Q132.698,17.1788,135.707,17.1788Q138.442,17.1788,140.475,18.375Q142.508,19.5706,143.641,22.01Q144.775,24.4494,144.775,28.2331Q144.775,32.0081,143.689,34.4681Q142.604,36.9275,140.579,38.1156Q138.554,39.3037,135.707,39.3037ZM136.781,34.1944Q138.336,34.1944,139.57,33.485Q140.805,32.7756,141.538,31.4219Q142.272,30.0675,142.272,28.2331Q142.272,26.3587,141.538,25.0325Q140.805,23.7062,139.57,22.9969Q138.336,22.2875,136.781,22.2875Q135.226,22.2875,133.991,22.9969Q132.757,23.7062,132.023,25.0325Q131.29,26.3587,131.29,28.2331Q131.29,30.0675,132.023,31.4219Q132.757,32.7756,133.991,33.485Q135.226,34.1944,136.781,34.1944ZM142.455,39L142.455,34.5919L142.56,28.2087L142.16,21.8263L142.16,9.32L148.4,9.32L148.4,39L142.455,39ZM167.341,39L167.341,34.8063L166.966,33.8625L166.966,26.3581Q166.966,24.3475,165.744,23.2425Q164.523,22.1369,161.986,22.1369Q160.288,22.1369,158.623,22.6694Q156.959,23.2013,155.782,24.1219L153.554,19.7794Q155.329,18.5069,157.804,17.8431Q160.279,17.1788,162.839,17.1788Q167.779,17.1788,170.492,19.4937Q173.206,21.8081,173.206,26.7088L173.206,39L167.341,39ZM160.803,39.3037Q158.292,39.3037,156.492,38.4562Q154.692,37.6081,153.736,36.1287Q152.779,34.6488,152.779,32.7931Q152.779,30.8906,153.714,29.4469Q154.649,28.0025,156.688,27.1825Q158.727,26.3619,162.007,26.3619L167.701,26.3619L167.701,29.9981L162.699,29.9981Q160.486,29.9981,159.669,30.7119Q158.852,31.425,158.852,32.5381Q158.852,33.7081,159.783,34.4137Q160.712,35.1188,162.34,35.1188Q163.912,35.1188,165.163,34.3894Q166.413,33.66,166.966,32.1937L167.909,35.0913Q167.244,37.145,165.443,38.2244Q163.643,39.3037,160.803,39.3037Z" fill="#11C291" fill-opacity="1"/><path d="M190.598,39L190.598,11L203.312,11Q207.895,11,211.371,12.7362Q214.846,14.4725,216.798,17.6044Q218.749,20.7362,218.749,24.9919Q218.749,29.2475,216.798,32.3875Q214.846,35.5275,211.371,37.2637Q207.895,39,203.312,39L190.598,39ZM197.093,33.6919L203.008,33.6919Q205.812,33.6919,207.864,32.63Q209.915,31.5681,211.057,29.61Q212.199,27.6512,212.199,24.9919Q212.199,22.3088,211.057,20.3706Q209.915,18.4319,207.864,17.37Q205.812,16.3081,203.008,16.3081L197.093,16.3081L197.093,33.6919ZM219.546,39L232.027,11L238.436,11L250.941,39L244.174,39L233.902,14.2975L236.473,14.2975L226.201,39L219.546,39ZM225.812,33.01L227.512,28.0925L241.938,28.0925L243.661,33.01L225.812,33.01ZM267.061,39.4712Q263.754,39.4712,260.946,38.3913Q258.138,37.3112,256.078,35.3556Q254.018,33.3994,252.874,30.7619Q251.731,28.1244,251.731,24.9925Q251.731,21.8606,252.874,19.2344Q254.018,16.6075,256.081,14.645Q258.143,12.6819,260.943,11.6056Q263.742,10.5288,267.048,10.5288Q270.367,10.5288,273.152,11.6012Q275.938,12.6731,277.996,14.6281Q280.053,16.5831,281.197,19.2181Q282.341,21.8531,282.341,24.995Q282.341,28.1369,281.197,30.7806Q280.053,33.4238,277.996,35.3756Q275.938,37.3269,273.152,38.3994Q270.367,39.4712,267.061,39.4712ZM267.047,33.9794Q268.923,33.9794,270.511,33.3269Q272.099,32.6744,273.283,31.4762Q274.467,30.2781,275.128,28.6331Q275.789,26.9875,275.789,24.9925Q275.789,22.9981,275.131,21.3625Q274.473,19.7262,273.288,18.5269Q272.103,17.3275,270.513,16.6744Q268.924,16.0206,267.048,16.0206Q265.173,16.0206,263.577,16.675Q261.981,17.3288,260.792,18.53Q259.603,19.7306,258.942,21.3687Q258.281,23.0063,258.281,24.9919Q258.281,26.9781,258.941,28.6231Q259.601,30.2681,260.788,31.475Q261.975,32.6813,263.573,33.3306Q265.171,33.9794,267.047,33.9794Z" fill="#131514" fill-opacity="1"/></g></svg>

<svg xmlns="http://www.w3.org/2000/svg" width="284" height="49" fill="none"><path fill="#11C291" d="M3.318 39V11h6.495v28H3.318Zm26.538.471q-3.264 0-6.04-1.06-2.775-1.06-4.815-3.008-2.04-1.948-3.175-4.592-1.135-2.643-1.135-5.811t1.135-5.811q1.136-2.644 3.188-4.592 2.052-1.948 4.827-3.008t6.039-1.06q3.637 0 6.588 1.26 2.95 1.258 4.934 3.688l-4.15 3.848q-1.433-1.633-3.198-2.468-1.766-.836-3.863-.836-1.963 0-3.597.649-1.635.649-2.833 1.846-1.197 1.198-1.858 2.848-.662 1.65-.662 3.636 0 1.986.662 3.636.66 1.65 1.858 2.848 1.198 1.197 2.833 1.847 1.634.648 3.597.648 2.097 0 3.863-.835 1.765-.837 3.198-2.493l4.15 3.848q-1.983 2.414-4.934 3.694-2.95 1.278-6.612 1.278ZM45.758 39V11h12.104q3.776 0 6.502 1.22 2.728 1.22 4.203 3.503 1.476 2.283 1.476 5.426 0 3.12-1.476 5.395-1.475 2.276-4.203 3.503-2.727 1.228-6.502 1.228h-8.505l2.896-2.906V39h-6.495Zm6.495-9.928-2.896-3.073h8.17q2.974 0 4.47-1.278 1.495-1.28 1.495-3.572 0-2.316-1.496-3.594-1.495-1.278-4.468-1.278h-8.171l2.896-3.073v15.868ZM87.181 39v-4.194l-.375-.944v-7.504q0-2.01-1.222-3.116-1.22-1.105-3.758-1.105-1.698 0-3.363.532-1.664.532-2.841 1.453l-2.228-4.343q1.775-1.272 4.25-1.936 2.475-.664 5.035-.664 4.94 0 7.653 2.315 2.714 2.314 2.714 7.215V39h-5.865Zm-6.538.304q-2.511 0-4.311-.848-1.8-.848-2.756-2.327-.957-1.48-.957-3.336 0-1.902.935-3.346.935-1.444 2.974-2.264 2.04-.821 5.319-.821h5.694v3.636H82.54q-2.213 0-3.03.714-.817.713-.817 1.826 0 1.17.93 1.876.93.705 2.558.705 1.572 0 2.822-.73 1.251-.729 1.804-2.195l.943 2.897q-.665 2.054-2.466 3.133-1.8 1.08-4.64 1.08Zm31.102-22.125q2.568 0 4.584 1.008 2.016 1.007 3.183 3.107 1.169 2.1 1.169 5.395V39h-6.24V27.621q0-2.595-1.143-3.828-1.142-1.235-3.203-1.235-1.499 0-2.678.625-1.178.625-1.831 1.899t-.653 3.276V39h-6.24V17.482h5.945v5.966l-1.117-1.792q1.16-2.19 3.315-3.333 2.156-1.144 4.909-1.144Zm23.962 22.125q-3.009 0-5.453-1.368-2.445-1.368-3.86-3.848-1.416-2.48-1.416-5.855 0-3.375 1.416-5.854 1.415-2.48 3.86-3.84 2.444-1.36 5.453-1.36 2.735 0 4.768 1.196t3.166 3.635q1.134 2.44 1.134 6.223 0 3.775-1.086 6.235-1.085 2.46-3.11 3.648-2.025 1.188-4.872 1.188Zm1.074-5.11q1.555 0 2.789-.709 1.235-.71 1.968-2.063.734-1.355.734-3.189 0-1.874-.734-3.2-.733-1.327-1.968-2.036-1.234-.71-2.789-.71-1.555 0-2.79.71-1.234.71-1.968 2.035-.733 1.327-.733 3.201 0 1.834.733 3.189.734 1.354 1.968 2.063 1.235.71 2.79.71ZM142.455 39v-4.408l.105-6.383-.4-6.383V9.32h6.24V39h-5.945Zm24.886 0v-4.194l-.375-.944v-7.504q0-2.01-1.222-3.116-1.221-1.105-3.758-1.105-1.698 0-3.363.532-1.664.532-2.841 1.453l-2.228-4.343q1.775-1.272 4.25-1.936 2.475-.664 5.035-.664 4.94 0 7.653 2.315 2.714 2.314 2.714 7.215V39h-5.865Zm-6.538.304q-2.511 0-4.311-.848-1.8-.848-2.756-2.327-.957-1.48-.957-3.336 0-1.902.935-3.346.935-1.444 2.974-2.264 2.039-.821 5.319-.821h5.694v3.636h-5.002q-2.213 0-3.03.714-.817.713-.817 1.826 0 1.17.931 1.876.929.705 2.557.705 1.572 0 2.823-.73 1.25-.729 1.803-2.195l.943 2.897q-.665 2.054-2.466 3.133-1.8 1.08-4.64 1.08Z"/><path fill="#131514" d="M190.598 39V11h12.714q4.583 0 8.059 1.736 3.475 1.736 5.427 4.868 1.951 3.132 1.951 7.388 0 4.255-1.951 7.396-1.952 3.14-5.427 4.876Q207.895 39 203.312 39h-12.714Zm6.495-5.308h5.915q2.804 0 4.856-1.062 2.051-1.062 3.193-3.02 1.142-1.959 1.142-4.618 0-2.683-1.142-4.621-1.142-1.94-3.193-3.001-2.052-1.062-4.856-1.062h-5.915v17.384ZM219.546 39l12.481-28h6.409l12.505 28h-6.767l-10.272-24.703h2.571L226.201 39h-6.655Zm6.266-5.99 1.7-4.917h14.426l1.723 4.917h-17.849Zm41.249 6.461q-3.307 0-6.115-1.08-2.808-1.08-4.868-3.035-2.06-1.957-3.204-4.594-1.143-2.638-1.143-5.77 0-3.131 1.143-5.758 1.144-2.627 3.207-4.589 2.062-1.963 4.862-3.04 2.799-1.076 6.105-1.076 3.319 0 6.104 1.072 2.786 1.072 4.844 3.027 2.057 1.955 3.201 4.59 1.144 2.635 1.144 5.777 0 3.142-1.144 5.786-1.144 2.643-3.201 4.595-2.058 1.95-4.844 3.023-2.785 1.072-6.091 1.072Zm-.014-5.492q1.876 0 3.464-.652 1.588-.653 2.772-1.85 1.184-1.199 1.845-2.844.661-1.645.661-3.64t-.658-3.63q-.658-1.637-1.843-2.836-1.185-1.2-2.775-1.853-1.589-.653-3.465-.653-1.875 0-3.471.654t-2.785 1.855q-1.189 1.2-1.85 2.839-.661 1.637-.661 3.623 0 1.986.66 3.631.66 1.645 1.847 2.852 1.187 1.206 2.785 1.856 1.598.648 3.474.648Z"/></svg>
